vector/pareben.svg

<?xml version="1.0" encoding="UTF-8" standalone="no"?>
<svg
   xmlns:dc="http://purl.org/dc/elements/1.1/"
   xmlns:cc="http://creativecommons.org/ns#"
   xmlns:rdf="http://www.w3.org/1999/02/22-rdf-syntax-ns#"
   xmlns:svg="http://www.w3.org/2000/svg"
   xmlns="http://www.w3.org/2000/svg"
   id="svg39"
   height="186.03mm"
   width="160.42mm"
   version="1.0">
  <metadata
     id="metadata43">
    <rdf:RDF>
      <cc:Work
         rdf:about="">
        <dc:format>image/svg+xml</dc:format>
        <dc:type
           rdf:resource="http://purl.org/dc/dcmitype/StillImage" />
      </cc:Work>
    </rdf:RDF>
  </metadata>
  <defs
     id="defs3">
    <pattern
       y="0"
       x="0"
       height="6"
       width="6"
       patternUnits="userSpaceOnUse"
       id="EMFhbasepattern" />
  </defs>
  <path
     id="path5"
     d="  M 302.60062,0.0800319   L 605.1212,175.1098   L 605.1212,526.80998   L 302.60062,701.79973   L 0.0800319,526.80998   L 0.0800319,175.1098   z "
     style="fill:#20455a;fill-rule:evenodd;fill-opacity:1;stroke:none;" />
  <path
     id="path7"
     d="  M 302.60062,29.211644   L 579.83112,189.59557   L 579.83112,512.32421   L 302.60062,672.66812   L 25.370112,512.32421   L 25.370112,189.59557   z "
     style="fill:#418ab3;fill-rule:evenodd;fill-opacity:1;stroke:none;" />
  <text
     id="text13"
     y="0.000000"
     x="0.000000"
     transform="matrix(1.000000,-0.000000,0.000000,1.000000,82.794486,506.075118)"
     style="font-size:117.312500px;font-style:normal;font-variant:normal;font-weight:400;font-stretch:Normal;line-height:125.000000%;letter-spacing:0px;word-spacing:0px;fill:#000000;fill-opacity:1;stroke:none;font-family:Trebuchet MS;text-align:start;text-anchor:start;"
     xml:space="preserve"><tspan
       id="tspan11"
       y="0.000000"
       x="0.000000"><tspan
         id="tspan9"
         style="fill:#FFFFFF;font-size:117.312500px;font-style:normal;font-variant:normal;font-weight:400;font-stretch:Normal;font-family:Trebuchet MS;"
         dy="0.000000"
         dx="0.000000">parEBEN</tspan></tspan></text>
  <path
     id="path15"
     d="  M 178.8713,176.43032   L 251.18012,104.1215   L 353.42087,104.1215   L 425.68968,176.43032   L 425.68968,278.67108   L 353.42087,350.93988   L 251.18012,350.93988   L 178.8713,278.67108   z "
     style="fill:#418ab3;fill-rule:evenodd;fill-opacity:1;stroke:none;" />
  <path
     id="path17"
     d="  M 178.8713,176.43032   L 251.18012,104.1215   L 353.42087,104.1215   L 425.68968,176.43032   L 425.68968,278.67108   L 353.42087,350.93988   L 251.18012,350.93988   L 178.8713,278.67108   z "
     style="fill:none;stroke:#8abad4;stroke-width:8.00319px;stroke-linecap:butt;stroke-linejoin:miter;stroke-miterlimit:8;stroke-dasharray:none;stroke-opacity:1;" />
  <path
     id="path19"
     d="  M 217.56672,317.68663   L 392.1163,143.13705   L 386.47405,137.4948   L 211.92447,312.04438   z  M 206.24221,306.36211   C 201.56034,311.084 201.56034,318.68703 206.24221,323.36889   C 210.92407,328.05076 218.5271,328.05076 223.24899,323.36889   C 227.93085,318.68703 227.93085,311.084 223.24899,306.36211   C 218.5271,301.68025 210.92407,301.68025 206.24221,306.36211   z  M 397.79856,148.81932   C 402.48043,144.09744 402.48043,136.49441 397.79856,131.81254   C 393.11669,127.13067 385.51366,127.13067 380.79178,131.81254   C 376.10992,136.49441 376.10992,144.09744 380.79178,148.81932   C 385.51366,153.50119 393.11669,153.50119 397.79856,148.81932   z "
     style="fill:#8abad4;fill-rule:nonzero;fill-opacity:1;stroke:#8abad4;stroke-width:0.040015951px;stroke-linecap:butt;stroke-linejoin:round;stroke-miterlimit:10;stroke-dasharray:none;stroke-opacity:1;" />
  <path
     id="path21"
     d="  M 350.61976,353.70098   L 176.07018,179.15141   L 181.71243,173.50916   L 356.262,348.05873   z  M 361.94427,342.37647   C 366.62614,347.09835 366.62614,354.70138 361.94427,359.38325   C 357.2624,364.06512 349.65937,364.06512 344.93749,359.38325   C 340.25562,354.70138 340.25562,347.09835 344.93749,342.37647   C 349.65937,337.6946 357.2624,337.6946 361.94427,342.37647   z  M 170.38792,184.83367   C 165.70605,180.11179 165.70605,172.50876 170.38792,167.8269   C 175.06978,163.14503 182.67281,163.14503 187.39469,167.8269   C 192.07656,172.50876 192.07656,180.11179 187.39469,184.83367   C 182.67281,189.51554 175.06978,189.51554 170.38792,184.83367   z "
     style="fill:#ffffff;fill-rule:nonzero;fill-opacity:1;stroke:#ffffff;stroke-width:0.040015951px;stroke-linecap:butt;stroke-linejoin:round;stroke-miterlimit:10;stroke-dasharray:none;stroke-opacity:1;" />
  <path
     id="path23"
     d="  M 386.79417,317.68663   L 212.2446,143.13705   L 217.88685,137.4948   L 392.43642,312.04438   z  M 398.11869,306.36211   C 402.80055,311.084 402.80055,318.68703 398.11869,323.36889   C 393.43682,328.05076 385.83379,328.05076 381.11191,323.36889   C 376.43004,318.68703 376.43004,311.084 381.11191,306.36211   C 385.83379,301.68025 393.43682,301.68025 398.11869,306.36211   z  M 206.56234,148.81932   C 201.88047,144.09744 201.88047,136.49441 206.56234,131.81254   C 211.2442,127.13067 218.84723,127.13067 223.56911,131.81254   C 228.25098,136.49441 228.25098,144.09744 223.56911,148.81932   C 218.84723,153.50119 211.2442,153.50119 206.56234,148.81932   z "
     style="fill:#8abad4;fill-rule:nonzero;fill-opacity:1;stroke:#8abad4;stroke-width:0.040015951px;stroke-linecap:butt;stroke-linejoin:round;stroke-miterlimit:10;stroke-dasharray:none;stroke-opacity:1;" />
  <path
     id="path25"
     d="  M 422.96859,281.51221   L 248.41902,106.96263   L 254.06127,101.32039   L 428.61084,275.86996   z  M 434.29311,270.1877   C 438.97497,274.90958 438.97497,282.51261 434.29311,287.19447   C 429.61124,291.87634 422.00821,291.87634 417.28633,287.19447   C 412.60446,282.51261 412.60446,274.90958 417.28633,270.1877   C 422.00821,265.50583 429.61124,265.50583 434.29311,270.1877   z  M 242.73675,112.6449   C 238.05489,107.92302 238.05489,100.31999 242.73675,95.638121   C 247.41862,90.956255 255.02165,90.956255 259.74353,95.638121   C 264.4254,100.31999 264.4254,107.92302 259.74353,112.6449   C 255.02165,117.32677 247.41862,117.32677 242.73675,112.6449   z "
     style="fill:#ffffff;fill-rule:nonzero;fill-opacity:1;stroke:#ffffff;stroke-width:0.040015951px;stroke-linecap:butt;stroke-linejoin:round;stroke-miterlimit:10;stroke-dasharray:none;stroke-opacity:1;" />
  <path
     id="path27"
     d="  M 181.71243,281.51221   L 356.262,106.96263   L 350.61976,101.32039   L 176.07018,275.86996   z  M 170.38792,270.1877   C 165.70605,274.90958 165.70605,282.51261 170.38792,287.19447   C 175.06978,291.87634 182.67281,291.87634 187.39469,287.19447   C 192.07656,282.51261 192.07656,274.90958 187.39469,270.1877   C 182.67281,265.50583 175.06978,265.50583 170.38792,270.1877   z  M 361.94427,112.6449   C 366.62614,107.92302 366.62614,100.31999 361.94427,95.638121   C 357.2624,90.956255 349.65937,90.956255 344.93749,95.638121   C 340.25562,100.31999 340.25562,107.92302 344.93749,112.6449   C 349.65937,117.32677 357.2624,117.32677 361.94427,112.6449   z "
     style="fill:#ffffff;fill-rule:nonzero;fill-opacity:1;stroke:#ffffff;stroke-width:0.040015951px;stroke-linecap:butt;stroke-linejoin:round;stroke-miterlimit:10;stroke-dasharray:none;stroke-opacity:1;" />
  <path
     id="path29"
     d="  M 422.96859,173.50916   L 248.41902,348.05873   L 254.06127,353.70098   L 428.61084,179.15141   z  M 434.29311,184.83367   C 438.97497,180.11179 438.97497,172.50876 434.29311,167.8269   C 429.61124,163.14503 422.00821,163.14503 417.28633,167.8269   C 412.60446,172.50876 412.60446,180.11179 417.28633,184.83367   C 422.00821,189.51554 429.61124,189.51554 434.29311,184.83367   z  M 242.73675,342.37647   C 238.05489,347.09835 238.05489,354.70138 242.73675,359.38325   C 247.41862,364.06512 255.02165,364.06512 259.74353,359.38325   C 264.4254,354.70138 264.4254,347.09835 259.74353,342.37647   C 255.02165,337.6946 247.41862,337.6946 242.73675,342.37647   z "
     style="fill:#ffffff;fill-rule:nonzero;fill-opacity:1;stroke:#ffffff;stroke-width:0.040015951px;stroke-linecap:butt;stroke-linejoin:round;stroke-miterlimit:10;stroke-dasharray:none;stroke-opacity:1;" />
  <path
     id="path31"
     d="  M 351.90027,354.62135   L 177.35069,282.31253   L 180.43192,274.90958   L 354.98149,347.2184   z  M 358.02271,339.81545   C 364.14515,342.37647 367.06631,349.37926 364.54531,355.5017   C 361.98429,361.62414 354.98149,364.54531 348.85905,361.98429   C 342.73661,359.46328 339.81545,352.46049 342.33645,346.29803   C 344.89747,340.17559 351.90027,337.29444 358.02271,339.81545   z  M 174.30948,289.71548   C 168.18704,287.15446 165.26587,280.15167 167.78688,274.02923   C 170.3479,267.90679 177.35069,264.98562 183.47313,267.50663   C 189.59557,270.06765 192.51674,277.07044 189.99573,283.19288   C 187.43471,289.31532 180.43192,292.23648 174.30948,289.71548   z "
     style="fill:#ffffff;fill-rule:nonzero;fill-opacity:1;stroke:#ffffff;stroke-width:0.040015951px;stroke-linecap:butt;stroke-linejoin:round;stroke-miterlimit:10;stroke-dasharray:none;stroke-opacity:1;" />
  <path
     id="path33"
     d="  M 421.9682,174.78967   L 349.65937,349.33925   L 357.06232,352.42047   L 429.37115,177.8709   z  M 436.73408,180.91211   C 439.2951,174.78967 436.37394,167.78688 430.2515,165.22586   C 424.12906,162.70485 417.12627,165.62602 414.56524,171.74846   C 412.04424,177.8709 414.92539,184.87369 421.04783,187.43471   C 427.21028,189.95572 434.21308,187.03455 436.73408,180.91211   z  M 342.25642,346.29803   C 339.73542,352.42047 342.65658,359.42326 348.77902,361.98429   C 354.90146,364.50529 361.90425,361.58413 364.46527,355.46169   C 366.98628,349.33925 364.06512,342.33645 357.94267,339.77543   C 351.82023,337.25443 344.81744,340.17559 342.25642,346.29803   z "
     style="fill:#ffffff;fill-rule:nonzero;fill-opacity:1;stroke:#ffffff;stroke-width:0.040015951px;stroke-linecap:butt;stroke-linejoin:round;stroke-miterlimit:10;stroke-dasharray:none;stroke-opacity:1;" />
  <path
     id="path35"
     d="  M 252.78076,100.44004   L 427.33033,172.74886   L 424.2491,180.15181   L 249.69953,107.84299   z  M 246.65832,115.24594   C 240.53588,112.68492 237.61471,105.68212 240.13572,99.559684   C 242.69674,93.437244 249.69953,90.516079 255.82197,93.037084   C 261.94441,95.598105 264.86557,102.6009 262.34457,108.72334   C 259.78355,114.84578 252.78076,117.76694 246.65832,115.24594   z  M 430.37154,165.34591   C 436.49398,167.90693 439.41515,174.90972 436.89414,181.03216   C 434.33312,187.1546 427.33033,190.07576 421.20789,187.51474   C 415.08545,184.99374 412.16429,177.99095 414.68529,171.82849   C 417.24631,165.70605 424.2491,162.8249 430.37154,165.34591   z "
     style="fill:#ffffff;fill-rule:nonzero;fill-opacity:1;stroke:#ffffff;stroke-width:0.040015951px;stroke-linecap:butt;stroke-linejoin:round;stroke-miterlimit:10;stroke-dasharray:none;stroke-opacity:1;" />
  <path
     id="path37"
     d="  M 182.57277,280.21169   L 254.88159,105.66212   L 247.47864,102.6009   L 175.18983,277.15047   z  M 167.78688,274.08925   C 165.24587,280.21169 168.16703,287.23449 174.28947,289.7755   C 180.41191,292.31652 187.43471,289.39535 189.97572,283.27291   C 192.51674,277.15047 189.59557,270.12767 183.47313,267.58666   C 177.35069,265.06565 170.32789,267.96681 167.78688,274.08925   z  M 262.26454,108.72334   C 264.80555,102.6009 261.90439,95.578097 255.78195,93.037084   C 249.65951,90.496071 242.63671,93.417236 240.0957,99.539676   C 237.55469,105.66212 240.45584,112.68492 246.59829,115.22593   C 252.72073,117.76694 259.74353,114.84578 262.26454,108.72334   z "
     style="fill:#ffffff;fill-rule:nonzero;fill-opacity:1;stroke:#ffffff;stroke-width:0.020007975px;stroke-linecap:butt;stroke-linejoin:round;stroke-miterlimit:10;stroke-dasharray:none;stroke-opacity:1;" />
</svg>

<?xml version="1.0" encoding="utf-8"?>
<!-- Generator: Adobe Illustrator 16.0.0, SVG Export Plug-In . SVG Version: 6.00 Build 0)  -->
<!DOCTYPE svg PUBLIC "-//W3C//DTD SVG 1.1//EN" "http://www.w3.org/Graphics/SVG/1.1/DTD/svg11.dtd">
<svg version="1.1"
	 id="svg39" xmlns:dc="http://purl.org/dc/elements/1.1/" xmlns:cc="http://creativecommons.org/ns#" xmlns:rdf="http://www.w3.org/1999/02/22-rdf-syntax-ns#" xmlns:svg="http://www.w3.org/2000/svg"
	 xmlns="http://www.w3.org/2000/svg" xmlns:xlink="http://www.w3.org/1999/xlink" x="0px" y="0px" width="454.734px"
	 height="527.329px" viewBox="0 0 454.734 527.329" enable-background="new 0 0 454.734 527.329" xml:space="preserve">
<path id="path5" fill="#20455A" d="M302.601,0.08l302.521,175.03v351.699l-302.521,174.99L0.08,526.809V175.11L302.601,0.08z"/>
<path id="path7" fill="#418AB3" d="M302.601,29.212l277.23,160.384v322.729l-277.23,160.344L25.37,512.325V189.596L302.601,29.212z"
	/>
<g enable-background="new    ">
	<path fill="#FFFFFF" d="M101.411,502.696v27.438H90.527v-85.407h10.884v5.041c4.124-4.124,9.107-6.187,14.95-6.187
		c8.707,0,15.485,2.712,20.335,8.134c4.849,5.423,7.275,13.366,7.275,23.829c0,9.318-2.444,16.927-7.332,22.827
		c-4.889,5.899-11.953,8.85-21.194,8.85c-2.597,0-5.375-0.458-8.334-1.375C104.15,504.93,102.25,503.88,101.411,502.696z
		 M101.411,457.959v35.743c0.687,1.031,2.138,2.015,4.353,2.95c2.214,0.937,4.373,1.403,6.473,1.403
		c13.518,0,20.277-7.637,20.277-22.912c0-7.752-1.604-13.423-4.812-17.013c-3.208-3.589-8.344-5.385-15.409-5.385
		c-1.528,0-3.399,0.535-5.614,1.604C104.466,455.42,102.708,456.623,101.411,457.959z"/>
	<path fill="#FFFFFF" d="M190.541,499.03c-4.353,5.462-11.018,8.191-19.991,8.191c-4.812,0-8.984-1.747-12.516-5.241
		c-3.532-3.494-5.298-7.838-5.298-13.031c0-6.225,2.721-11.485,8.163-15.781s12.382-6.444,20.822-6.444
		c2.292,0,4.888,0.497,7.791,1.489c0-9.929-4.431-14.893-13.29-14.893c-6.798,0-12.029,1.833-15.695,5.499l-4.583-9.108
		c2.062-1.68,4.917-3.122,8.564-4.324c3.646-1.203,7.131-1.805,10.454-1.805c8.897,0,15.36,2.024,19.39,6.072
		c4.028,4.048,6.043,10.482,6.043,19.304v21.996c0,5.384,1.604,8.975,4.812,10.769v5.441c-4.43,0-7.743-0.63-9.938-1.89
		C193.07,504.013,191.495,501.933,190.541,499.03z M189.51,475.946c-3.437-0.764-5.843-1.146-7.218-1.146
		c-5.499,0-9.986,1.413-13.461,4.238c-3.476,2.827-5.213,6.168-5.213,10.024c0,6.378,3.761,9.566,11.285,9.566
		c5.499,0,10.368-2.615,14.607-7.848V475.946z"/>
	<path fill="#FFFFFF" d="M250.858,455.209c-2.368-1.642-4.755-2.463-7.16-2.463c-3.857,0-7.228,1.775-10.11,5.327
		c-2.884,3.552-4.324,7.829-4.324,12.831v35.171H218.38v-61.349h10.884v9.795c3.971-7.293,9.871-10.94,17.699-10.94
		c1.947,0,4.755,0.344,8.421,1.031L250.858,455.209z"/>
	<path fill="#FFFFFF" d="M275.432,432.469v23.313h27.725v9.737h-27.725v30.245h38.035v10.311h-49.49v-83.917h50.121v10.311H275.432z
		"/>
	<path fill="#FFFFFF" d="M350.758,506.076h-23.944v-83.917c10.196-0.496,17.547-0.745,22.054-0.745
		c8.285,0,14.701,1.785,19.246,5.355c4.544,3.571,6.816,8.679,6.816,15.323c0,3.896-1.451,7.446-4.354,10.654
		s-6.109,5.213-9.623,6.015c6.645,1.604,11.484,4.259,14.521,7.962c3.035,3.705,4.553,8.745,4.553,15.122
		c0,7.371-2.701,13.252-8.105,17.644C366.519,503.88,359.464,506.076,350.758,506.076z M338.27,431.324v24.115
		c2.406,0.229,5.385,0.344,8.936,0.344c10.846,0,16.269-4.411,16.269-13.232c0-7.752-4.983-11.628-14.95-11.628
		C344.704,430.922,341.286,431.056,338.27,431.324z M338.27,464.318v32.02c3.934,0.383,6.95,0.573,9.051,0.573
		c7.179,0,12.42-1.346,15.724-4.038c3.303-2.692,4.955-6.979,4.955-12.86c0-5.46-1.575-9.488-4.726-12.086
		c-3.15-2.597-8.412-3.896-15.781-3.896L338.27,464.318z"/>
	<path fill="#FFFFFF" d="M404.659,432.469v23.313h27.725v9.737h-27.725v30.245h38.035v10.311h-49.491v-83.917h50.121v10.311H404.659
		z"/>
	<path fill="#FFFFFF" d="M510.286,507.221l-43.362-61.349v60.203h-10.883v-83.917h4.582l42.217,58.025v-58.025h10.883v85.062
		H510.286z"/>
</g>
<path id="path15" fill="#418AB3" d="M178.871,176.43l72.309-72.309h102.241l72.269,72.309v102.24l-72.269,72.27H251.18
	l-72.309-72.27V176.43z"/>
<path id="path17" fill="none" stroke="#8ABAD4" stroke-width="8.0032" stroke-miterlimit="8" d="M178.871,176.43l72.309-72.309
	h102.241l72.269,72.309v102.24l-72.269,72.27H251.18l-72.309-72.27V176.43z"/>
<path id="path19" fill="#8ABAD4" stroke="#8ABAD4" stroke-width="0.04" stroke-linejoin="round" stroke-miterlimit="10" d="
	M217.567,317.686l174.549-174.549l-5.642-5.643l-174.55,174.55L217.567,317.686z M206.242,306.362
	c-4.682,4.723-4.682,12.325,0,17.008c4.682,4.682,12.285,4.682,17.007,0c4.682-4.683,4.682-12.285,0-17.008
	C218.527,301.68,210.924,301.68,206.242,306.362z M397.799,148.819c4.682-4.722,4.682-12.325,0-17.007s-12.285-4.682-17.007,0
	c-4.683,4.682-4.683,12.285,0,17.007C385.514,153.501,393.117,153.501,397.799,148.819z"/>
<path id="path21" fill="#FFFFFF" stroke="#FFFFFF" stroke-width="0.04" stroke-linejoin="round" stroke-miterlimit="10" d="
	M350.62,353.702l-174.55-174.55l5.642-5.642l174.549,174.55L350.62,353.702z M361.944,342.376c4.682,4.722,4.682,12.325,0,17.007
	s-12.285,4.682-17.007,0c-4.682-4.682-4.682-12.285,0-17.007C349.659,337.694,357.263,337.694,361.944,342.376z M170.388,184.833
	c-4.682-4.722-4.682-12.325,0-17.006c4.682-4.682,12.285-4.682,17.007,0c4.682,4.682,4.682,12.285,0,17.006
	C182.673,189.516,175.07,189.516,170.388,184.833z"/>
<path id="path23" fill="#8ABAD4" stroke="#8ABAD4" stroke-width="0.04" stroke-linejoin="round" stroke-miterlimit="10" d="
	M386.794,317.686L212.245,143.137l5.642-5.643l174.55,174.55L386.794,317.686z M398.119,306.362c4.682,4.723,4.682,12.325,0,17.008
	c-4.683,4.682-12.285,4.682-17.007,0c-4.683-4.683-4.683-12.285,0-17.008C385.834,301.68,393.437,301.68,398.119,306.362z
	 M206.562,148.819c-4.682-4.722-4.682-12.325,0-17.007c4.682-4.682,12.285-4.682,17.007,0c4.682,4.682,4.682,12.285,0,17.007
	C218.847,153.501,211.244,153.501,206.562,148.819z"/>
<path id="path25" fill="#FFFFFF" stroke="#FFFFFF" stroke-width="0.04" stroke-linejoin="round" stroke-miterlimit="10" d="
	M422.969,281.512l-174.55-174.549l5.643-5.643l174.55,174.549L422.969,281.512z M434.293,270.188c4.682,4.722,4.682,12.324,0,17.006
	c-4.682,4.683-12.285,4.683-17.007,0c-4.682-4.682-4.682-12.284,0-17.006C422.008,265.506,429.611,265.506,434.293,270.188z
	 M242.736,112.645c-4.682-4.722-4.682-12.325,0-17.007c4.682-4.682,12.285-4.682,17.008,0c4.682,4.682,4.682,12.285,0,17.007
	C255.021,117.327,247.418,117.327,242.736,112.645z"/>
<path id="path27" fill="#FFFFFF" stroke="#FFFFFF" stroke-width="0.04" stroke-linejoin="round" stroke-miterlimit="10" d="
	M181.712,281.512l174.549-174.549l-5.642-5.643L176.07,275.87L181.712,281.512z M170.388,270.188
	c-4.682,4.722-4.682,12.324,0,17.006c4.682,4.683,12.285,4.683,17.007,0c4.682-4.682,4.682-12.284,0-17.006
	C182.673,265.506,175.07,265.506,170.388,270.188z M361.944,112.645c4.682-4.722,4.682-12.325,0-17.007
	c-4.682-4.682-12.285-4.682-17.007,0c-4.682,4.682-4.682,12.285,0,17.007C349.659,117.327,357.263,117.327,361.944,112.645z"/>
<path id="path29" fill="#FFFFFF" stroke="#FFFFFF" stroke-width="0.04" stroke-linejoin="round" stroke-miterlimit="10" d="
	M422.969,173.509l-174.55,174.55l5.643,5.643l174.55-174.55L422.969,173.509z M434.293,184.833c4.682-4.722,4.682-12.325,0-17.006
	c-4.682-4.682-12.285-4.682-17.007,0c-4.682,4.682-4.682,12.285,0,17.006C422.008,189.516,429.611,189.516,434.293,184.833z
	 M242.736,342.376c-4.682,4.722-4.682,12.325,0,17.007s12.285,4.682,17.008,0c4.682-4.682,4.682-12.285,0-17.007
	C255.021,337.694,247.418,337.694,242.736,342.376z"/>
<path id="path31" fill="#FFFFFF" stroke="#FFFFFF" stroke-width="0.04" stroke-linejoin="round" stroke-miterlimit="10" d="
	M351.9,354.622l-174.55-72.309l3.081-7.403l174.55,72.309L351.9,354.622z M358.022,339.815c6.123,2.562,9.044,9.564,6.522,15.688
	c-2.561,6.121-9.563,9.043-15.686,6.482c-6.123-2.521-9.044-9.524-6.523-15.688C344.897,340.176,351.9,337.294,358.022,339.815z
	 M174.31,289.715c-6.123-2.561-9.044-9.564-6.522-15.686c2.561-6.123,9.563-9.045,15.686-6.523
	c6.123,2.561,9.043,9.564,6.522,15.687C187.435,289.315,180.432,292.237,174.31,289.715z"/>
<path id="path33" fill="#FFFFFF" stroke="#FFFFFF" stroke-width="0.04" stroke-linejoin="round" stroke-miterlimit="10" d="
	M421.969,174.79l-72.31,174.55l7.403,3.081l72.309-174.549L421.969,174.79z M436.734,180.912c2.561-6.123-0.36-13.125-6.482-15.687
	c-6.123-2.521-13.126,0.4-15.687,6.523c-2.521,6.123,0.36,13.125,6.482,15.686C427.21,189.956,434.213,187.035,436.734,180.912z
	 M342.256,346.297c-2.521,6.123,0.4,13.126,6.523,15.688c6.122,2.521,13.125-0.4,15.686-6.523
	c2.521-6.122-0.399-13.125-6.522-15.686C351.82,337.254,344.817,340.176,342.256,346.297z"/>
<path id="path35" fill="#FFFFFF" stroke="#FFFFFF" stroke-width="0.04" stroke-linejoin="round" stroke-miterlimit="10" d="
	M252.781,100.44l174.549,72.309l-3.081,7.403l-174.55-72.309L252.781,100.44z M246.658,115.246
	c-6.122-2.561-9.043-9.564-6.522-15.687c2.562-6.122,9.563-9.043,15.687-6.522c6.122,2.561,9.043,9.564,6.522,15.687
	C259.783,114.846,252.781,117.767,246.658,115.246z M430.371,165.346c6.123,2.562,9.044,9.564,6.523,15.687
	c-2.562,6.122-9.564,9.043-15.687,6.482c-6.122-2.521-9.044-9.523-6.522-15.686C417.246,165.706,424.249,162.825,430.371,165.346z"
	/>
<path id="path37" fill="#FFFFFF" stroke="#FFFFFF" stroke-width="0.02" stroke-linejoin="round" stroke-miterlimit="10" d="
	M182.573,280.211l72.309-174.549l-7.403-3.061l-72.289,174.55L182.573,280.211z M167.787,274.089
	c-2.541,6.122,0.38,13.146,6.502,15.687s13.145-0.381,15.686-6.503s-0.38-13.146-6.502-15.687
	C177.351,265.065,170.328,267.967,167.787,274.089z M262.265,108.724c2.541-6.123-0.36-13.146-6.482-15.687
	s-13.146,0.38-15.687,6.502s0.36,13.146,6.502,15.687C252.721,117.767,259.744,114.846,262.265,108.724z"/>
</svg>
